lib/flags/s/NPL.svg

<svg xmlns="http://www.w3.org/2000/svg" fill="none" viewBox="0 0 16 12"><path fill="#fff" d="M0 0H16V12H0z"/><path fill="#C51918" stroke="#4857A1" d="M5.61589 6.32009L9.93248 11.5H0.5V0.842271L9.03917 5.5H6H4.93248L5.61589 6.32009Z"/><mask id="NPL_svg__a" width="11" height="12" x="0" y="0" mask-type="alpha" maskUnits="userSpaceOnUse"><path fill="#fff" stroke="#fff" d="M5.61589 6.32009L9.93248 11.5H0.5V0.842271L9.03917 5.5H6H4.93248L5.61589 6.32009Z"/></mask><g fill-rule="evenodd" clip-rule="evenodd" mask="url(#NPL_svg__a)"><path fill="#F7FCFF" d="M2.91481 10.0051 2.30223 10.8002 2.27395 9.79689 1.31105 10.08 1.87788 9.25174.932453 8.91481 1.87788 8.57789 1.31105 7.74961 2.27395 8.03274 2.30223 7.02948 2.91481 7.82452 3.5274 7.02948 3.55568 8.03274 4.51858 7.74961 3.95175 8.57789 4.89718 8.91481 3.95175 9.25174 4.51858 10.08 3.55568 9.79689 3.5274 10.8002 2.91481 10.0051zM2.90002 4.0694 2.58011 4.48461 2.56534 3.96066 2.06247 4.10852 2.35849 3.67595 1.86475 3.5 2.35849 3.32405 2.06247 2.89148 2.56534 3.03934 2.58011 2.51539 2.90002 2.9306 3.21994 2.51539 3.23471 3.03934 3.73758 2.89148 3.44156 3.32405 3.9353 3.5 3.44156 3.67595 3.73758 4.10852 3.23471 3.96066 3.21994 4.48461 2.90002 4.0694z"/><path fill="#F9FAFA" d="M2.83303 3.94707C3.94619 3.95152 4.53969 3.32002 4.53969 3.32002C4.6571 4.0406 3.75059 4.52002 2.84388 4.52002C1.93717 4.52002 1.3882 3.86651 1.04999 3.32002C1.04999 3.32002 1.71987 3.94262 2.83303 3.94707Z"/></g></svg>

<svg xmlns="http://www.w3.org/2000/svg" fill="none" viewBox="0 0 16 12"><path fill="#fff" d="M0 0h16v12H0z"/><path fill="#C51918" stroke="#4857A1" d="M5.616 6.32l4.316 5.18H.5V.842L9.04 5.5H4.931l.684.82z"/><mask id="NPL_svg__a" width="11" height="12" x="0" y="0" maskUnits="userSpaceOnUse"><path fill="#fff" stroke="#fff" d="M5.616 6.32l4.316 5.18H.5V.842L9.04 5.5H4.931l.684.82z"/></mask><g fill-rule="evenodd" clip-rule="evenodd" mask="url(#NPL_svg__a)"><path fill="#F7FCFF" d="M2.915 10.005l-.613.795-.028-1.003-.963.283.567-.828-.946-.337.946-.337-.567-.828.963.283.028-1.004.613.796.612-.796.029 1.004.963-.283-.567.828.945.337-.945.337.567.828-.963-.283-.029 1.003-.612-.795zM2.9 4.07l-.32.415-.015-.524-.503.148.296-.433-.493-.176.493-.176-.296-.433.503.148.015-.524.32.416.32-.416.015.524.503-.148-.296.433.493.176-.493.176.296.433-.503-.148-.015.524-.32-.416z"/><path fill="#F9FAFA" d="M2.833 3.947c1.113.004 1.707-.627 1.707-.627.117.72-.79 1.2-1.696 1.2-.907 0-1.456-.654-1.794-1.2 0 0 .67.623 1.783.627z"/></g></svg>
